src/assets/vertical-logo.svg

<svg xmlns="http://www.w3.org/2000/svg" fill="none" viewBox="0 0 116 32"><path fill="#292524" d="M35.584 23.144c-.896 0-1.696-.1653-2.4-.496-.704-.3413-1.2533-.8107-1.648-1.408-.384-.608-.576-1.296-.576-2.064v-3.584c0-.768.192-1.4507.576-2.048.3947-.5973.9387-1.0613 1.632-1.392.6933-.3307 1.488-.496 2.384-.496.896 0 1.6907.144 2.384.432.6933.2773 1.232.6667 1.616 1.168.3947.5013.592 1.0773.592 1.728 0 .32-.1067.5707-.32.752-.2133.1813-.496.272-.848.272-.0747 0-.1867-.0107-.336-.032.0213-.128.032-.3307.032-.608 0-.4587-.1333-.8693-.4-1.232-.256-.3627-.624-.6453-1.104-.848-.4693-.2027-1.008-.304-1.616-.304-.5973 0-1.1307.112-1.6.336-.4693.2133-.8373.5227-1.104.928-.256.3947-.384.8427-.384 1.344v3.584c0 .512.128.9707.384 1.376.2667.3947.6347.704 1.104.928.48.224 1.024.336 1.632.336.6187 0 1.168-.1013 1.648-.304s.8533-.48 1.12-.832c.2667-.3627.4-.7787.4-1.248 0-.1707-.0107-.3733-.032-.608.1493-.0213.256-.032.32-.032.352 0 .6347.1013.848.304.224.2027.336.4747.336.816 0 .6293-.1973 1.1893-.592 1.68-.3947.4907-.944.8747-1.648 1.152-.6933.2667-1.4933.4-2.4.4ZM46.2655 23.144c-.8853 0-1.68-.1707-2.384-.512-.6933-.352-1.2373-.832-1.632-1.44-.3947-.6187-.592-1.3013-.592-2.048v-3.52c0-.7467.1973-1.4187.592-2.016.3947-.608.9387-1.0827 1.632-1.424.704-.352 1.4987-.528 2.384-.528.896 0 1.6907.176 2.384.528.704.3413 1.2533.816 1.648 1.424.3947.5973.592 1.2693.592 2.016v3.52c0 .7467-.1973 1.4293-.592 2.048-.3947.608-.944 1.088-1.648 1.44-.704.3413-1.4987.512-2.384.512Zm0-1.312c.992 0 1.7653-.2453 2.32-.736.5547-.4907.832-1.1467.832-1.968v-3.472c0-.8213-.2773-1.472-.832-1.952-.5547-.4907-1.328-.736-2.32-.736-.9813 0-1.7493.2453-2.304.736-.5547.48-.832 1.1307-.832 1.952v3.472c0 .8213.2773 1.4773.832 1.968.5547.4907 1.3227.736 2.304.736ZM56.9374 23.144c-.8854 0-1.68-.1707-2.384-.512-.6934-.352-1.2374-.832-1.632-1.44-.3947-.6187-.592-1.3013-.592-2.048v-3.52c0-.7467.1973-1.4187.592-2.016.3946-.608.9386-1.0827 1.632-1.424.704-.352 1.4986-.528 2.384-.528.896 0 1.6906.176 2.384.528.704.3413 1.2533.816 1.648 1.424.3946.5973.592 1.2693.592 2.016v3.52c0 .7467-.1974 1.4293-.592 2.048-.3947.608-.944 1.088-1.648 1.44-.704.3413-1.4987.512-2.384.512Zm0-1.312c.992 0 1.7653-.2453 2.32-.736.5546-.4907.832-1.1467.832-1.968v-3.472c0-.8213-.2774-1.472-.832-1.952-.5547-.4907-1.328-.736-2.32-.736-.9814 0-1.7494.2453-2.304.736-.5547.48-.832 1.1307-.832 1.952v3.472c0 .8213.2773 1.4773.832 1.968.5546.4907 1.3226.736 2.304.736ZM63.4012 12.904c0-.3947.1334-.6987.4-.912.2667-.224.6347-.336 1.104-.336v5.488l5.84-5.488c.1814.1493.3307.3093.448.48.1174.16.176.304.176.432 0 .2667-.16.5493-.48.848l-3.744 3.52 4.832 5.792c-.1173.128-.256.2293-.416.304-.1493.0747-.2986.112-.448.112-.416 0-.752-.1493-1.008-.448l-4.048-4.8-1.152 1.072v2.976c0 .4053-.1226.7093-.368.912-.2453.192-.624.288-1.136.288v-10.24ZM74.5911 23c-.2133 0-.3947-.0693-.544-.208-.1493-.1387-.224-.304-.224-.496v-9.792c0-.2027.0747-.368.224-.496.1493-.1387.3307-.208.544-.208h4.448c.928 0 1.664.2773 2.208.832.5547.5547.832 1.3013.832 2.24 0 .5013-.1333.9707-.4 1.408-.2667.4373-.6133.7627-1.04.976v.032c.608.1813 1.0774.496 1.408.944.3307.4373.496.9707.496 1.6 0 .6187-.1333 1.168-.4 1.648-.256.48-.6187.8533-1.088 1.12-.4693.2667-1.008.4-1.616.4h-4.848Zm4.416-6.256c.4374 0 .8107-.176 1.12-.528.32-.3627.48-.8.48-1.312 0-.5653-.144-1.008-.432-1.328-.2773-.32-.6666-.48-1.168-.48h-3.696v3.648h3.696Zm.32 4.96c.544 0 .9707-.16 1.28-.48.3093-.3307.464-.7893.464-1.376 0-.5653-.1547-1.008-.464-1.328-.2986-.32-.7253-.48-1.28-.48h-4.016v3.664h4.016ZM88.5936 23.144c-.8853 0-1.68-.1707-2.384-.512-.6933-.352-1.2373-.832-1.632-1.44-.3946-.6187-.592-1.3013-.592-2.048v-3.52c0-.7467.1974-1.4187.592-2.016.3947-.608.9387-1.0827 1.632-1.424.704-.352 1.4987-.528 2.384-.528.896 0 1.6907.176 2.384.528.704.3413 1.2534.816 1.648 1.424.3947.5973.592 1.2693.592 2.016v3.52c0 .7467-.1973 1.4293-.592 2.048-.3946.608-.944 1.088-1.648 1.44-.704.3413-1.4987.512-2.384.512Zm0-1.312c.992 0 1.7653-.2453 2.32-.736.5547-.4907.832-1.1467.832-1.968v-3.472c0-.8213-.2773-1.472-.832-1.952-.5547-.4907-1.328-.736-2.32-.736-.9813 0-1.7493.2453-2.304.736-.5547.48-.832 1.1307-.832 1.952v3.472c0 .8213.2773 1.4773.832 1.968.5547.4907 1.3227.736 2.304.736ZM99.2655 23.144c-.8853 0-1.68-.1707-2.384-.512-.6933-.352-1.2373-.832-1.632-1.44-.3947-.6187-.592-1.3013-.592-2.048v-3.52c0-.7467.1973-1.4187.592-2.016.3947-.608.9387-1.0827 1.632-1.424.704-.352 1.4987-.528 2.384-.528.8955 0 1.6905.176 2.3835.528.704.3413 1.254.816 1.648 1.424.395.5973.592 1.2693.592 2.016v3.52c0 .7467-.197 1.4293-.592 2.048-.394.608-.944 1.088-1.648 1.44-.704.3413-1.498.512-2.3835.512Zm0-1.312c.9915 0 1.7655-.2453 2.3195-.736.555-.4907.832-1.1467.832-1.968v-3.472c0-.8213-.277-1.472-.832-1.952-.554-.4907-1.328-.736-2.3195-.736-.9813 0-1.7493.2453-2.304.736-.5547.48-.832 1.1307-.832 1.952v3.472c0 .8213.2773 1.4773.832 1.968.5547.4907 1.3227.736 2.304.736ZM105.729 12.904c0-.3947.134-.6987.4-.912.267-.224.635-.336 1.104-.336v5.488l5.84-5.488c.182.1493.331.3093.448.48.118.16.176.304.176.432 0 .2667-.16.5493-.48.848l-3.744 3.52 4.832 5.792c-.117.128-.256.2293-.416.304-.149.0747-.298.112-.448.112-.416 0-.752-.1493-1.008-.448l-4.048-4.8-1.152 1.072v2.976c0 .4053-.122.7093-.368.912-.245.192-.624.288-1.136.288v-10.24Z"/><path stroke="#292524" stroke-linecap="round" stroke-linejoin="round" stroke-miterlimit="10" stroke-width="1.5" d="M2.6335 12.0382c2.226-.3892 20.31.4254 22.078.5805m-22.095-.4794c-.393.1473-1.628197 15.333 1.134 16.1651 4.254 1.2817 16.543 1.4571 19.239.2945 1.399-.6037 1.793-4.7219 1.855-8.827.04-2.6969-.064-5.388-.12-7.0733M9.97653 5.42287c.011.04344-.04-2.54586.42997-2.59803 4.045-.44966 8.542.42826 8.714.85136.243.59595.11 1.8013-.085 2.41953M3.56953 9.09366c5.366.36257 18.63897 1.53094 20.47297 1.34844 1.83-.1821-1.07-2.39767-2.569-3.16115-4.136-2.10717-11.299-2.3206-14.72598-1.04323-1.9.70798-4.93999 2.73692-3.17799 2.85594Z"/><path fill="#292524" stroke="#292524" stroke-linejoin="round" stroke-miterlimit="10" stroke-width="1.5" d="M9.93748 17.3569c-.955-.5339-1.721 2.4481-.627 2.6065.96902.1405.98802-.2408 1.15102-1.2074.163-.9621-.154-1.1921-.52402-1.3991Zm7.28702.6189c-.177.4415-.304 2.0225.596 2.0128.378-.004.64.0311.831-.618.19-.649.033-1.0314-.065-1.2886-.503-1.3075-1.185-.5496-1.362-.1062Z"/><path fill="#FACC15" stroke="#FACC15" stroke-linejoin="round" stroke-miterlimit="10" stroke-width="1.5" d="M10.1145 23.1751c-.71302-.4859-3.76901-.5827-2.69801.6453.314.3604 3.68601.4895 2.64401-.6914l.054.0461Zm6.415.1527c-.019.3099.52.8093 1.595.8178 1.689.0135 1.773-.7306 1.838-.8759.22-.4949-1.166-.5925-1.961-.5423-.802.0505-1.442.1159-1.472.6004Z"/></svg>

<svg viewBox="0 0 116 32" fill="none" xmlns="http://www.w3.org/2000/svg">
<path d="M2.75 12.2315H24.25V28C24.25 28.6903 23.6904 29.25 23 29.25H4C3.30964 29.25 2.75 28.6904 2.75 28V12.2315Z" stroke="#292524" stroke-width="1.5"/>
<ellipse cx="9.36" cy="18.3834" rx="1.84" ry="2.30065" fill="#292524"/>
<ellipse cx="17.64" cy="18.3834" rx="1.84" ry="2.30065" fill="#292524"/>
<ellipse cx="8.44" cy="23.3682" rx="1.15033" ry="2.76" transform="rotate(90 8.44 23.3682)" fill="#FACC15"/>
<ellipse cx="18.56" cy="23.3682" rx="1.15033" ry="2.76" transform="rotate(90 18.56 23.3682)" fill="#FACC15"/>
<path d="M8.6625 5.51383C5.30961 6.13965 2.75 7.4622 2.75 9.48148H24.25C24.25 7.43601 21.6236 6.10546 18.2066 5.48983M8.6625 5.51383C11.6307 4.95982 15.2205 4.95182 18.2066 5.48983M8.6625 5.51383C8.6625 2.16607 18.2066 2.16607 18.2066 5.48983" stroke="#292524" stroke-width="1.5"/>
<path d="M35.584 23.144C34.688 23.144 33.888 22.9787 33.184 22.648C32.48 22.3067 31.9307 21.8373 31.536 21.24C31.152 20.632 30.96 19.944 30.96 19.176V15.592C30.96 14.824 31.152 14.1413 31.536 13.544C31.9307 12.9467 32.4747 12.4827 33.168 12.152C33.8613 11.8213 34.656 11.656 35.552 11.656C36.448 11.656 37.2427 11.8 37.936 12.088C38.6293 12.3653 39.168 12.7547 39.552 13.256C39.9467 13.7573 40.144 14.3333 40.144 14.984C40.144 15.304 40.0373 15.5547 39.824 15.736C39.6107 15.9173 39.328 16.008 38.976 16.008C38.9013 16.008 38.7893 15.9973 38.64 15.976C38.6613 15.848 38.672 15.6453 38.672 15.368C38.672 14.9093 38.5387 14.4987 38.272 14.136C38.016 13.7733 37.648 13.4907 37.168 13.288C36.6987 13.0853 36.16 12.984 35.552 12.984C34.9547 12.984 34.4213 13.096 33.952 13.32C33.4827 13.5333 33.1147 13.8427 32.848 14.248C32.592 14.6427 32.464 15.0907 32.464 15.592V19.176C32.464 19.688 32.592 20.1467 32.848 20.552C33.1147 20.9467 33.4827 21.256 33.952 21.48C34.432 21.704 34.976 21.816 35.584 21.816C36.2027 21.816 36.752 21.7147 37.232 21.512C37.712 21.3093 38.0853 21.032 38.352 20.68C38.6187 20.3173 38.752 19.9013 38.752 19.432C38.752 19.2613 38.7413 19.0587 38.72 18.824C38.8693 18.8027 38.976 18.792 39.04 18.792C39.392 18.792 39.6747 18.8933 39.888 19.096C40.112 19.2987 40.224 19.5707 40.224 19.912C40.224 20.5413 40.0267 21.1013 39.632 21.592C39.2373 22.0827 38.688 22.4667 37.984 22.744C37.2907 23.0107 36.4907 23.144 35.584 23.144Z" fill="#292524"/>
<path d="M46.2655 23.144C45.3802 23.144 44.5855 22.9733 43.8815 22.632C43.1882 22.28 42.6442 21.8 42.2495 21.192C41.8548 20.5733 41.6575 19.8907 41.6575 19.144V15.624C41.6575 14.8773 41.8548 14.2053 42.2495 13.608C42.6442 13 43.1882 12.5253 43.8815 12.184C44.5855 11.832 45.3802 11.656 46.2655 11.656C47.1615 11.656 47.9562 11.832 48.6495 12.184C49.3535 12.5253 49.9028 13 50.2975 13.608C50.6922 14.2053 50.8895 14.8773 50.8895 15.624V19.144C50.8895 19.8907 50.6922 20.5733 50.2975 21.192C49.9028 21.8 49.3535 22.28 48.6495 22.632C47.9455 22.9733 47.1508 23.144 46.2655 23.144ZM46.2655 21.832C47.2575 21.832 48.0308 21.5867 48.5855 21.096C49.1402 20.6053 49.4175 19.9493 49.4175 19.128V15.656C49.4175 14.8347 49.1402 14.184 48.5855 13.704C48.0308 13.2133 47.2575 12.968 46.2655 12.968C45.2842 12.968 44.5162 13.2133 43.9615 13.704C43.4068 14.184 43.1295 14.8347 43.1295 15.656V19.128C43.1295 19.9493 43.4068 20.6053 43.9615 21.096C44.5162 21.5867 45.2842 21.832 46.2655 21.832Z" fill="#292524"/>
<path d="M56.9374 23.144C56.052 23.144 55.2574 22.9733 54.5534 22.632C53.86 22.28 53.316 21.8 52.9214 21.192C52.5267 20.5733 52.3294 19.8907 52.3294 19.144V15.624C52.3294 14.8773 52.5267 14.2053 52.9214 13.608C53.316 13 53.86 12.5253 54.5534 12.184C55.2574 11.832 56.052 11.656 56.9374 11.656C57.8334 11.656 58.628 11.832 59.3214 12.184C60.0254 12.5253 60.5747 13 60.9694 13.608C61.364 14.2053 61.5614 14.8773 61.5614 15.624V19.144C61.5614 19.8907 61.364 20.5733 60.9694 21.192C60.5747 21.8 60.0254 22.28 59.3214 22.632C58.6174 22.9733 57.8227 23.144 56.9374 23.144ZM56.9374 21.832C57.9294 21.832 58.7027 21.5867 59.2574 21.096C59.812 20.6053 60.0894 19.9493 60.0894 19.128V15.656C60.0894 14.8347 59.812 14.184 59.2574 13.704C58.7027 13.2133 57.9294 12.968 56.9374 12.968C55.956 12.968 55.188 13.2133 54.6334 13.704C54.0787 14.184 53.8014 14.8347 53.8014 15.656V19.128C53.8014 19.9493 54.0787 20.6053 54.6334 21.096C55.188 21.5867 55.956 21.832 56.9374 21.832Z" fill="#292524"/>
<path d="M63.4012 12.904C63.4012 12.5093 63.5346 12.2053 63.8013 11.992C64.0679 11.768 64.4359 11.656 64.9053 11.656V17.144L70.7453 11.656C70.9266 11.8053 71.0759 11.9653 71.1932 12.136C71.3106 12.296 71.3692 12.44 71.3692 12.568C71.3692 12.8347 71.2093 13.1173 70.8893 13.416L67.1452 16.936L71.9772 22.728C71.8599 22.856 71.7212 22.9573 71.5612 23.032C71.4119 23.1067 71.2626 23.144 71.1133 23.144C70.6973 23.144 70.3612 22.9947 70.1052 22.696L66.0573 17.896L64.9053 18.968V21.944C64.9053 22.3493 64.7826 22.6533 64.5373 22.856C64.2919 23.048 63.9132 23.144 63.4012 23.144V12.904Z" fill="#292524"/>
<path d="M74.5911 23C74.3778 23 74.1965 22.9307 74.0471 22.792C73.8978 22.6533 73.8231 22.488 73.8231 22.296V12.504C73.8231 12.3013 73.8978 12.136 74.0471 12.008C74.1965 11.8693 74.3778 11.8 74.5911 11.8H79.0391C79.9671 11.8 80.7031 12.0773 81.2471 12.632C81.8018 13.1867 82.0791 13.9333 82.0791 14.872C82.0791 15.3733 81.9458 15.8427 81.6791 16.28C81.4125 16.7173 81.0658 17.0427 80.6391 17.256V17.288C81.2471 17.4693 81.7165 17.784 82.0471 18.232C82.3778 18.6693 82.5431 19.2027 82.5431 19.832C82.5431 20.4507 82.4098 21 82.1431 21.48C81.8871 21.96 81.5245 22.3333 81.0551 22.6C80.5858 22.8667 80.0471 23 79.4391 23H74.5911ZM79.0071 16.744C79.4445 16.744 79.8178 16.568 80.1271 16.216C80.4471 15.8533 80.6071 15.416 80.6071 14.904C80.6071 14.3387 80.4631 13.896 80.1751 13.576C79.8978 13.256 79.5085 13.096 79.0071 13.096H75.3111V16.744H79.0071ZM79.3271 21.704C79.8711 21.704 80.2978 21.544 80.6071 21.224C80.9165 20.8933 81.0711 20.4347 81.0711 19.848C81.0711 19.2827 80.9165 18.84 80.6071 18.52C80.3085 18.2 79.8818 18.04 79.3271 18.04H75.3111V21.704H79.3271Z" fill="#292524"/>
<path d="M88.5936 23.144C87.7083 23.144 86.9136 22.9733 86.2096 22.632C85.5163 22.28 84.9723 21.8 84.5776 21.192C84.183 20.5733 83.9856 19.8907 83.9856 19.144V15.624C83.9856 14.8773 84.183 14.2053 84.5776 13.608C84.9723 13 85.5163 12.5253 86.2096 12.184C86.9136 11.832 87.7083 11.656 88.5936 11.656C89.4896 11.656 90.2843 11.832 90.9776 12.184C91.6816 12.5253 92.231 13 92.6256 13.608C93.0203 14.2053 93.2176 14.8773 93.2176 15.624V19.144C93.2176 19.8907 93.0203 20.5733 92.6256 21.192C92.231 21.8 91.6816 22.28 90.9776 22.632C90.2736 22.9733 89.479 23.144 88.5936 23.144ZM88.5936 21.832C89.5856 21.832 90.359 21.5867 90.9136 21.096C91.4683 20.6053 91.7456 19.9493 91.7456 19.128V15.656C91.7456 14.8347 91.4683 14.184 90.9136 13.704C90.359 13.2133 89.5856 12.968 88.5936 12.968C87.6123 12.968 86.8443 13.2133 86.2896 13.704C85.735 14.184 85.4576 14.8347 85.4576 15.656V19.128C85.4576 19.9493 85.735 20.6053 86.2896 21.096C86.8443 21.5867 87.6123 21.832 88.5936 21.832Z" fill="#292524"/>
<path d="M99.2655 23.144C98.3802 23.144 97.5855 22.9733 96.8815 22.632C96.1882 22.28 95.6442 21.8 95.2495 21.192C94.8548 20.5733 94.6575 19.8907 94.6575 19.144V15.624C94.6575 14.8773 94.8548 14.2053 95.2495 13.608C95.6442 13 96.1882 12.5253 96.8815 12.184C97.5855 11.832 98.3802 11.656 99.2655 11.656C100.161 11.656 100.956 11.832 101.649 12.184C102.354 12.5253 102.903 13 103.298 13.608C103.692 14.2053 103.89 14.8773 103.89 15.624V19.144C103.89 19.8907 103.692 20.5733 103.298 21.192C102.903 21.8 102.354 22.28 101.649 22.632C100.945 22.9733 100.151 23.144 99.2655 23.144ZM99.2655 21.832C100.257 21.832 101.031 21.5867 101.586 21.096C102.14 20.6053 102.418 19.9493 102.418 19.128V15.656C102.418 14.8347 102.14 14.184 101.586 13.704C101.031 13.2133 100.257 12.968 99.2655 12.968C98.2842 12.968 97.5162 13.2133 96.9615 13.704C96.4068 14.184 96.1295 14.8347 96.1295 15.656V19.128C96.1295 19.9493 96.4068 20.6053 96.9615 21.096C97.5162 21.5867 98.2842 21.832 99.2655 21.832Z" fill="#292524"/>
<path d="M105.729 12.904C105.729 12.5093 105.863 12.2053 106.129 11.992C106.396 11.768 106.764 11.656 107.233 11.656V17.144L113.073 11.656C113.255 11.8053 113.404 11.9653 113.521 12.136C113.639 12.296 113.697 12.44 113.697 12.568C113.697 12.8347 113.537 13.1173 113.217 13.416L109.473 16.936L114.305 22.728C114.188 22.856 114.049 22.9573 113.889 23.032C113.74 23.1067 113.591 23.144 113.441 23.144C113.025 23.144 112.689 22.9947 112.433 22.696L108.385 17.896L107.233 18.968V21.944C107.233 22.3493 107.111 22.6533 106.865 22.856C106.62 23.048 106.241 23.144 105.729 23.144V12.904Z" fill="#292524"/>
</svg>
